svg/l/MD.svg

<svg width="32" height="24" viewBox="0 0 32 24" fill="none" xmlns="http://www.w3.org/2000/svg">
<g clip-path="url(#clip0_270_67434)">
<rect width="32" height="24" fill="white"/>
<path fill-rule="evenodd" clip-rule="evenodd" d="M22 0H32V24H22V0Z" fill="#D9071E"/>
<path fill-rule="evenodd" clip-rule="evenodd" d="M0 0H12V24H0V0Z" fill="#3D58DB"/>
<path fill-rule="evenodd" clip-rule="evenodd" d="M10 0H22V24H10V0Z" fill="#FBCD17"/>
<path fill-rule="evenodd" clip-rule="evenodd" d="M21.7185 19.6142L20.6654 20.1895L17.1749 13.8007L18.2279 13.2254L21.7185 19.6142ZM10.5135 19.7678L11.5666 20.3431L15.0572 13.9543L14.0041 13.379L10.5135 19.7678Z" fill="#FD1900"/>
<path fill-rule="evenodd" clip-rule="evenodd" d="M11.3781 9.38903V14.9403C11.3781 16.1735 10.3162 17.7807 9.78068 18.3786C9.24514 18.9764 8.18152 20.3462 8.18152 20.3462V5.40832C8.18152 3.73275 9.78068 3.15717 9.78068 3.15717C9.78068 3.15717 11.1085 3.41987 11.3781 5.40832V7.34628C11.789 7.66993 13.1614 8.66252 14.0479 8.24351C15.1006 7.746 15.4641 6.31905 15.4641 6.31905C15.4641 6.31905 15.3657 4.87916 14.9337 4.87916C14.5016 4.87916 14.4671 2.85088 16.1217 2.85088C17.7763 2.85088 17.9692 3.6327 17.9692 4.25593C17.9692 4.58262 17.7073 5.10691 17.4581 5.60584C17.2319 6.05871 17.0162 6.49069 17.0162 6.73501C17.0162 7.2485 17.4031 8.24351 17.9692 8.24351C18.3663 8.24351 20.2761 7.50151 21.3815 7.0583V5.40832C21.6511 3.41987 22.9789 3.15717 22.9789 3.15717C22.9789 3.15717 24.5781 3.73275 24.5781 5.40832V20.3462C24.5781 20.3462 23.5144 18.9764 22.9789 18.3786C22.4434 17.7807 21.3815 16.1735 21.3815 14.9403V9.38903H11.3781ZM13.1502 19.8322C14.2318 19.128 15.8139 15.9701 15.8139 15.9701L16.3392 16.0922C16.3392 16.0922 17.1413 18.1838 19.4996 19.8322C16.9858 20.503 16.3392 21.8501 16.3392 21.8501C16.3392 20.7725 13.1502 19.8322 13.1502 19.8322ZM12.976 17.8333C13.705 17.8333 14.296 17.2737 14.296 16.5833C14.296 15.893 13.705 15.3333 12.976 15.3333C12.247 15.3333 11.656 15.893 11.656 16.5833C11.656 17.2737 12.247 17.8333 12.976 17.8333ZM20.72 16.5833C20.72 17.2737 20.129 17.8333 19.4 17.8333C18.671 17.8333 18.08 17.2737 18.08 16.5833C18.08 15.893 18.671 15.3333 19.4 15.3333C20.129 15.3333 20.72 15.893 20.72 16.5833Z" fill="#A77B3B"/>
<path d="M25.1401 10.4076L26.058 10.8044L22.3184 19.4563L21.4005 19.0596L25.1401 10.4076Z" fill="#FDFF00"/>
<path opacity="0.3" fill-rule="evenodd" clip-rule="evenodd" d="M11.04 7.83334H21.6V15.4722C21.6 15.4722 18.913 16.2816 16.32 17.6097C14.406 16.1898 11.04 15.4722 11.04 15.4722V7.83334Z" fill="#E1E5E8"/>
<mask id="mask0_270_67434" style="mask-type:luminance" maskUnits="userSpaceOnUse" x="11" y="7" width="11" height="11">
<path fill-rule="evenodd" clip-rule="evenodd" d="M11.04 7.83334H21.6V15.4722C21.6 15.4722 18.913 16.2816 16.32 17.6097C14.406 16.1898 11.04 15.4722 11.04 15.4722V7.83334Z" fill="white"/>
</mask>
<g mask="url(#mask0_270_67434)">
<rect x="11.04" y="12.8333" width="10.56" height="5" fill="#3D58DB"/>
<rect x="11.04" y="7.83334" width="10.56" height="5" fill="#FD1900"/>
<path fill-rule="evenodd" clip-rule="evenodd" d="M15.7867 10.0821L14.9864 10.1484L15.448 9.52571L14.956 8.88087L15.7605 8.98445L16.0689 8.27337L16.4117 8.9996L17.212 8.93337L16.7505 9.55602L17.2424 10.2009L16.438 10.0973L16.1295 10.8084L15.7867 10.0821Z" fill="#FDFF00"/>
<path fill-rule="evenodd" clip-rule="evenodd" d="M14.3501 8.67169C14.3501 8.67169 12.2002 9.97968 12.9168 10.9186C13.6335 11.8576 14.5356 11.9777 14.5356 11.9777C14.5356 11.9777 12.3364 15.277 16.207 17.1619C20.351 15.3423 18.1717 11.9777 18.1717 11.9777C18.1717 11.9777 19.4473 11.6955 19.7027 10.6803C19.9581 9.66509 18.0353 8.50066 18.0353 8.50066C18.0353 8.50066 19.235 10.2395 18.9611 10.6803C18.6872 11.1212 17.2201 11.57 16.207 11.57C15.1939 11.57 13.6295 11.2855 13.3771 10.5152C13.1246 9.74484 14.3501 8.67169 14.3501 8.67169Z" fill="#FDFF00"/>
<path fill-rule="evenodd" clip-rule="evenodd" d="M12.36 12L13.68 12.8333L12.36 13.6667L11.04 12.8333L12.36 12Z" fill="#FDFF00"/>
<path fill-rule="evenodd" clip-rule="evenodd" d="M20.2801 12L21.6001 12.8333L20.2801 13.6667L18.9601 12.8333L20.2801 12Z" fill="#FDFF00"/>
<path fill-rule="evenodd" clip-rule="evenodd" d="M12.32 15.3C12.541 15.3 12.72 15.1209 12.72 14.9C12.72 14.6791 12.541 14.5 12.32 14.5C12.0991 14.5 11.92 14.6791 11.92 14.9C11.92 15.1209 12.0991 15.3 12.32 15.3Z" fill="#FDFF00"/>
<path fill-rule="evenodd" clip-rule="evenodd" d="M20.83 14.5428C20.4867 14.2647 19.9604 14.3455 19.6545 14.7232C19.3487 15.1009 19.3791 15.6325 19.7224 15.9106C19.909 16.0617 19.8117 15.4612 20.0941 15.0792C20.3314 14.7583 20.9868 14.6697 20.83 14.5428Z" fill="#FDFF00"/>
</g>
<path fill-rule="evenodd" clip-rule="evenodd" d="M4.73669 11.529C4.73669 11.529 5.79082 12.7752 6.78338 12.3677C7.77595 11.9603 7.5353 10.4995 7.5353 10.4995L6.78338 11.1816H6.14332V11.529L5.64342 11.1816V11.529H4.73669ZM5.44962 13.444C5.44962 13.444 6.7344 14.5646 7.59999 14.2479C8.46559 13.9313 8.24823 12.4145 8.24823 12.4145L7.49631 13.0966H6.85625V13.444L6.35635 13.0966V13.444H5.44962ZM8.90943 15.9869C8.04383 16.3036 6.75905 15.183 6.75905 15.183H7.66578V14.8356L8.16568 15.183V14.8356H8.80574L9.55766 14.1535C9.55766 14.1535 9.77502 15.6703 8.90943 15.9869Z" fill="#048F02"/>
<path fill-rule="evenodd" clip-rule="evenodd" d="M13.9793 2.24849H12.9793V2.84408H12.5087V3.84408H12.9793V5.58871H13.9793V3.84408H14.5515V2.84408H13.9793V2.24849Z" fill="#FDFF00"/>
<path fill-rule="evenodd" clip-rule="evenodd" d="M15.1582 3.38455L12.842 3.9812L15.1582 4.71308V3.38455Z" fill="#DB4400"/>
</g>
<defs>
<clipPath id="clip0_270_67434">
<rect width="32" height="24" fill="white"/>
</clipPath>
</defs>
</svg>

<svg width="32" height="24" fill="none" xmlns="http://www.w3.org/2000/svg">
  <mask id="a" maskUnits="userSpaceOnUse" x="0" y="0" width="32" height="24">
    <path fill="#fff" d="M0 0h32v24H0z"/>
  </mask>
  <g mask="url(#a)">
    <path fill-rule="evenodd" clip-rule="evenodd" d="M22 0h10v24H22V0z" fill="#D9071E"/>
    <path fill-rule="evenodd" clip-rule="evenodd" d="M0 0h12v24H0V0z" fill="#3D58DB"/>
    <path fill-rule="evenodd" clip-rule="evenodd" d="M10 0h12v24H10V0z" fill="#FBCD17"/>
    <path fill-rule="evenodd" clip-rule="evenodd" d="M21.718 19.614l-1.053.575-3.49-6.388 1.053-.576 3.49 6.39zm-11.204.154l1.053.575 3.49-6.389-1.053-.575-3.49 6.389z" fill="#FD1900"/>
    <path fill-rule="evenodd" clip-rule="evenodd" d="M11.378 9.389v5.551c0 1.234-1.062 2.84-1.597 3.439-.536.597-1.6 1.967-1.6 1.967V5.408c0-1.675 1.6-2.25 1.6-2.25s1.327.262 1.597 2.25v1.938c.411.324 1.783 1.317 2.67.898 1.053-.498 1.416-1.925 1.416-1.925s-.098-1.44-.53-1.44c-.432 0-.467-2.028 1.188-2.028 1.654 0 1.847.782 1.847 1.405 0 .327-.262.85-.51 1.35-.227.453-.443.885-.443 1.129 0 .513.387 1.509.953 1.509.397 0 2.307-.742 3.412-1.186v-1.65c.27-1.988 1.598-2.25 1.598-2.25s1.6.575 1.6 2.25v14.938s-1.065-1.37-1.6-1.967c-.536-.598-1.598-2.206-1.598-3.439V9.39H11.378zm1.772 10.443c1.082-.704 2.664-3.862 2.664-3.862l.525.122s.802 2.092 3.16 3.74c-2.513.671-3.16 2.018-3.16 2.018 0-1.078-3.189-2.018-3.189-2.018zm-.174-1.999c.729 0 1.32-.56 1.32-1.25s-.591-1.25-1.32-1.25c-.729 0-1.32.56-1.32 1.25s.591 1.25 1.32 1.25zm7.744-1.25c0 .69-.591 1.25-1.32 1.25-.729 0-1.32-.56-1.32-1.25s.591-1.25 1.32-1.25c.729 0 1.32.56 1.32 1.25z" fill="#A77B3B"/>
    <path d="M25.14 10.408l.918.396-3.74 8.652-.918-.396 3.74-8.652z" fill="#FDFF00"/>
    <path opacity=".3" fill-rule="evenodd" clip-rule="evenodd" d="M11.04 7.833H21.6v7.64s-2.687.809-5.28 2.137c-1.914-1.42-5.28-2.138-5.28-2.138V7.833z" fill="#E1E5E8"/>
    <mask id="b" maskUnits="userSpaceOnUse" x="11" y="7" width="11" height="11">
      <path fill-rule="evenodd" clip-rule="evenodd" d="M11.04 7.833H21.6v7.64s-2.687.809-5.28 2.137c-1.914-1.42-5.28-2.138-5.28-2.138V7.833z" fill="#fff"/>
    </mask>
    <g mask="url(#b)">
      <path fill="#3D58DB" d="M11.04 12.833H21.6v5H11.04z"/>
      <path fill="#FD1900" d="M11.04 7.833H21.6v5H11.04z"/>
      <path fill-rule="evenodd" clip-rule="evenodd" d="M15.787 10.082l-.8.066.461-.622-.492-.645.805.103.308-.71.343.726.8-.067-.462.623.492.645-.804-.104-.308.711-.343-.726z" fill="#FDFF00"/>
      <path fill-rule="evenodd" clip-rule="evenodd" d="M14.35 8.672s-2.15 1.308-1.433 2.247c.716.939 1.619 1.059 1.619 1.059s-2.2 3.299 1.671 5.184c4.144-1.82 1.965-5.184 1.965-5.184s1.275-.283 1.53-1.298c.256-1.015-1.667-2.18-1.667-2.18s1.2 1.74.926 2.18c-.274.441-1.74.89-2.754.89-1.013 0-2.578-.284-2.83-1.055-.252-.77.973-1.843.973-1.843z" fill="#FDFF00"/>
      <path fill-rule="evenodd" clip-rule="evenodd" d="M12.36 12l1.32.833-1.32.834-1.32-.834L12.36 12zm7.92 0l1.32.833-1.32.834-1.32-.834L20.28 12zm-7.96 3.3a.4.4 0 100-.8.4.4 0 000 .8zm8.51-.757c-.343-.278-.87-.197-1.175.18-.306.378-.276.91.067 1.188.187.15.09-.45.372-.832.237-.32.893-.41.736-.536z" fill="#FDFF00"/>
    </g>
    <path fill-rule="evenodd" clip-rule="evenodd" d="M4.737 11.529s1.054 1.246 2.046.839c.993-.408.752-1.869.752-1.869l-.752.683h-.64v.347l-.5-.347v.347h-.906zm.713 1.915s1.284 1.12 2.15.804c.866-.317.648-1.833.648-1.833l-.752.682h-.64v.347l-.5-.347v.347H5.45zm3.46 2.543c-.866.317-2.151-.804-2.151-.804h.907v-.347l.5.347v-.347h.64l.752-.683s.217 1.517-.649 1.834z" fill="#048F02"/>
    <path fill-rule="evenodd" clip-rule="evenodd" d="M13.98 2.248h-1v.596h-.471v1h.47V5.59h1V3.844h.573v-1h-.573v-.596z" fill="#FDFF00"/>
    <path fill-rule="evenodd" clip-rule="evenodd" d="M15.158 3.385l-2.316.596 2.316.732V3.385z" fill="#DB4400"/>
  </g>
</svg>
